X:1
T:MacKenna's Dream
T:Captain Rock
L:1/8
M:C
S:Joyce - Old Irish Folk Music and Songs  (1909)
Z:AK/Fiddler's Companion
K:D
AG|FD FG AG EC|D2 DD GE =CD|FE FG A2 GE|E2 DD D3E|
FE FG AG EC|D2 DD GE =C2 D|FE FG A2 GE|E2 DD D3||
D|DE FG AG AB|=cB cA GE D>C|DE FG AB =cA|dB GB A2 (3ABc|
d2 ec dc AG|FE FD E D2 =C>D|FE FG A2 GE|E2 DD D2||

